X:1
T:Title
%%score { ( 1 3 ) | ( 2 4 ) }
L:1/8
Q:1/4=90
M:6/8
K:Ab
V:1 treble nm="Grand Piano"
V:3 treble 
V:2 bass 
V:4 bass 
V:1
 [Ec]2 [Ec] [Fd]2 [Ec] | [=Dc]2 [DB] z2 A, | B2 B c2 B | [CB]2 [CA] [CE]3 | c2 c d2 c | %5
w: M.~Raff * * *|||||
 [Fe]2 [Fd] F3 | EAB c2 A | B3 .[CA]3 | [Ae]3 [Ac]3 | [FB]2 [FA] [DF]3 | [CE]2 [CA] cBA | z3 B3 | %12
w: |||||||
 e3 [Ac]3 |[M:15/16] c->cc/e<[Fd]- [Fd]3 |[M:3/4] [DF][DA] [Fd] c2 A | B3 .[CA]3 |] %16
w: ||||
V:2
 [A,,A,]2 [A,,A,] [A,,A,]2 [A,,A,] | [B,,F,]2 [B,,F,] .[B,,B,]3 | %2
 [E,G,D]2 [E,G,D] [E,A,E]2 [E,G,E] | [A,,A,]2 [A,,A,] [A,,A,]3 | %4
 [A,E]2 [A,E] [A,F]2[K:bass] [A,E] | [D,A,]2 [D,A,] [D,A,D]3 | %6
 [E,A,C][E,A,C][E,A,D] [E,A,E]2 [E,A,C] | [E,G,D]3 .[A,,A,]3 | [A,C]2 A, A,2 A, | %9
 [D,D]2 [D,D] [D,A,]3 | [A,,A,]2 [A,,A,] [F,A,C]2 [F,A,C] | z3 E3 | A3 z3 | %13
[M:15/16] [A,EA]->[A,EA][K:bass][C,A,][D,A,]3/2- [D,A,]3 | %14
[M:3/4] [D,A,][D,A,] [D,A,] [E,A,E]2 [E,A,C] | [E,G,D]3 .[A,,A,]3 |] %16
V:3
 x6 | z3 [=DF]3 | x6 | x6 | x6 | x6 | x6 | x6 | z2 C E2 E | x6 | x6 | [=DB]2 [DB] z2 B, | %12
 z2 C E2 E |[M:15/16] z3/2 z/ A-A z/ z3 |[M:3/4] x6 | x6 |] %16
V:4
 x6 | x6 | x6 | x6 | x5[K:bass] x | x6 | x6 | x6 | x6 | x6 | x6 | [B,,A,]2 [B,,A,] [E,G,]2 G, | %12
 [A,C]2 A, A,2 A, |[M:15/16] x2[K:bass] x11/2 |[M:3/4] x6 | x6 |] %16

